22x22/apps/appimagekit-cryptr.svg

<svg xmlns="http://www.w3.org/2000/svg" width="22" height="22" version="1"><rect style="opacity:.2" width="20" height="20" x="1" y="1.5" rx="6" ry="6"/><rect style="fill:#d7d7d7" width="20" height="20" x="1" y="1" rx="6" ry="6"/><path style="opacity:.1" d="M7.75 2.5a.75.75 0 0 0-.75.75.75.75 0 0 0 .75.75.75.75 0 0 0 .75-.75.75.75 0 0 0-.75-.75zm7 0a.75.75 0 0 0-.75.75.75.75 0 0 0 .75.75.75.75 0 0 0 .75-.75.75.75 0 0 0-.75-.75zm-9.29 3a.46.46 0 0 0-.46.46v11.08c0 .255.205.46.46.46h11.08a.46.46 0 0 0 .46-.46V5.96a.46.46 0 0 0-.46-.46zM2.75 7a.75.75 0 0 0-.75.75.75.75 0 0 0 .75.75.75.75 0 0 0 .75-.75.75.75 0 0 0-.75-.75zm16.5.5a.75.75 0 0 0-.75.75.75.75 0 0 0 .75.75.75.75 0 0 0 .75-.75.75.75 0 0 0-.75-.75zM2.75 14a.75.75 0 0 0-.75.75.75.75 0 0 0 .75.75.75.75 0 0 0 .75-.75.75.75 0 0 0-.75-.75zm16.5.5a.75.75 0 0 0-.75.75.75.75 0 0 0 .75.75.75.75 0 0 0 .75-.75.75.75 0 0 0-.75-.75zm-12 4.5a.75.75 0 0 0-.75.75.75.75 0 0 0 .75.75.75.75 0 0 0 .75-.75.75.75 0 0 0-.75-.75zm7 0a.75.75 0 0 0-.75.75.75.75 0 0 0 .75.75.75.75 0 0 0 .75-.75.75.75 0 0 0-.75-.75z"/><path style="opacity:.2;fill:#f4f4f7" d="M7 1C3.676 1 1 3.676 1 7v.5c0-3.324 2.676-6 6-6h8c3.324 0 6 2.676 6 6V7c0-3.324-2.676-6-6-6z"/><rect style="fill:#555" width="12" height="12" x="5" y="5" rx=".462" ry=".462"/><path style="opacity:.2" d="M11 7.5a2 2 0 0 0-2 2 2 2 0 0 0 1.076 1.773L9 14.5h4l-1.076-3.227A2 2 0 0 0 13 9.5a2 2 0 0 0-2-2z"/><circle style="fill:#f4f4f7" cx="11" cy="9" r="2"/><path style="fill:#f4f4f7" transform="matrix(.36372 0 0 .62998 1.801 -5.035)" d="m25.29 20.692 5.499 9.524H19.79z"/><circle style="fill:#555" cx="2.75" cy="7.25" r=".75"/><circle style="fill:#555" cx="2.75" cy="14.25" r=".75"/><circle style="fill:#555" cx="2.75" cy="-14.75" r=".75" transform="rotate(90)"/><circle style="fill:#555" cx="2.75" cy="-7.75" r=".75" transform="rotate(90)"/><circle style="fill:#555" cx="-19.25" cy="-14.75" r=".75" transform="scale(-1)"/><circle style="fill:#555" cx="-19.25" cy="-7.75" r=".75" transform="scale(-1)"/><circle style="fill:#555" cx="-19.25" cy="7.25" r=".75" transform="rotate(-90)"/><circle style="fill:#555" cx="-19.25" cy="14.25" r=".75" transform="rotate(-90)"/></svg>

<svg xmlns="http://www.w3.org/2000/svg" width="22" height="22" version="1">
 <rect style="opacity:0.2" width="20" height="20" x="1" y="1.5" rx="6" ry="6"/>
 <rect style="fill:#d7d7d7" width="20" height="20" x="1" y="1" rx="6" ry="6"/>
 <path style="opacity:0.1" d="M 7.75,2.5 A 0.75,0.75 0 0 0 7,3.25 0.75,0.75 0 0 0 7.75,4 0.75,0.75 0 0 0 8.5,3.25 0.75,0.75 0 0 0 7.75,2.5 Z m 7,0 A 0.75,0.75 0 0 0 14,3.25 0.75,0.75 0 0 0 14.75,4 0.75,0.75 0 0 0 15.5,3.25 0.75,0.75 0 0 0 14.75,2.5 Z m -9.2890625,3 C 5.2052452,5.5 5,5.7052452 5,5.9609375 V 17.039062 C 5,17.294755 5.2052452,17.5 5.4609375,17.5 H 16.539062 C 16.794755,17.5 17,17.294755 17,17.039062 V 5.9609375 C 17,5.7052452 16.794755,5.5 16.539062,5.5 Z M 2.75,7 A 0.75,0.75 0 0 0 2,7.75 0.75,0.75 0 0 0 2.75,8.5 0.75,0.75 0 0 0 3.5,7.75 0.75,0.75 0 0 0 2.75,7 Z m 16.5,0.5 A 0.75,0.75 0 0 0 18.5,8.25 0.75,0.75 0 0 0 19.25,9 0.75,0.75 0 0 0 20,8.25 0.75,0.75 0 0 0 19.25,7.5 Z M 2.75,14 A 0.75,0.75 0 0 0 2,14.75 0.75,0.75 0 0 0 2.75,15.5 0.75,0.75 0 0 0 3.5,14.75 0.75,0.75 0 0 0 2.75,14 Z m 16.5,0.5 A 0.75,0.75 0 0 0 18.5,15.25 0.75,0.75 0 0 0 19.25,16 0.75,0.75 0 0 0 20,15.25 0.75,0.75 0 0 0 19.25,14.5 Z M 7.25,19 A 0.75,0.75 0 0 0 6.5,19.75 0.75,0.75 0 0 0 7.25,20.5 0.75,0.75 0 0 0 8,19.75 0.75,0.75 0 0 0 7.25,19 Z m 7,0 A 0.75,0.75 0 0 0 13.5,19.75 0.75,0.75 0 0 0 14.25,20.5 0.75,0.75 0 0 0 15,19.75 0.75,0.75 0 0 0 14.25,19 Z"/>
 <path style="opacity:0.2;fill:#f4f4f7" d="M 7,1 C 3.676,1 1,3.676 1,7 v 0.5 c 0,-3.324 2.676,-6 6,-6 h 8 c 3.324,0 6,2.676 6,6 V 7 C 21,3.676 18.324,1 15,1 Z"/>
 <rect style="fill:#555555" width="12" height="12" x="5" y="5" rx=".462" ry=".462"/>
 <path style="opacity:0.2" d="m 11,7.5 a 2,2 0 0 0 -2,2 2,2 0 0 0 1.076172,1.773438 L 9,14.5 h 4 L 11.923828,11.273438 A 2,2 0 0 0 13,9.5 2,2 0 0 0 11,7.5 Z"/>
 <circle style="fill:#f4f4f7" cx="11" cy="9" r="2"/>
 <path style="fill:#f4f4f7" transform="matrix(0.36372064,0,0,0.6299826,1.8014964,-5.0353537)" d="m 25.290024,20.691609 5.498725,9.524073 -10.997451,-1e-6 z"/>
 <circle style="fill:#555555" cx="2.75" cy="7.25" r=".75"/>
 <circle style="fill:#555555" cx="2.75" cy="14.25" r=".75"/>
 <circle style="fill:#555555" cx="2.75" cy="-14.75" r=".75" transform="rotate(90)"/>
 <circle style="fill:#555555" cx="2.75" cy="-7.75" r=".75" transform="rotate(90)"/>
 <circle style="fill:#555555" cx="-19.25" cy="-14.75" r=".75" transform="scale(-1)"/>
 <circle style="fill:#555555" cx="-19.25" cy="-7.75" r=".75" transform="scale(-1)"/>
 <circle style="fill:#555555" cx="-19.25" cy="7.25" r=".75" transform="rotate(-90)"/>
 <circle style="fill:#555555" cx="-19.25" cy="14.25" r=".75" transform="rotate(-90)"/>
</svg>
